X: 5669
T: By The Fireside
R: jig
M: 6/8
K: Dmajor
|:E|F>GA AFA|AFA BAG|F>GA AGA|GFD E2D|
F>GA AFA|AFA BAG|d>BA BAG|FGE D2:|
|:A|f>ed edB|Ade f2a|f>ed edB|gfd e2d|
f>ed edB|ABd f>ec|dBA BAG|FGE D2:|

